img/arrow-right.svg

<svg width="4" height="7" viewBox="0 0 4 7" fill="none" xmlns="http://www.w3.org/2000/svg">
<path d="M0.296198 0.595903L0.0982936 0.792441C0.0364882 0.854296 0.0024391 0.936589 0.0024391 1.02454C0.0024391 1.11244 0.0364882 1.19483 0.0982936 1.25669L2.34036 3.49866L0.0958057 5.74321C0.0340003 5.80497 0 5.88736 0 5.97526C0 6.06317 0.0340003 6.14561 0.0958057 6.20741L0.29249 6.404C0.420394 6.532 0.628737 6.532 0.75664 6.404L3.43866 3.73159C3.50042 3.66983 3.54393 3.58754 3.54393 3.49885V3.49783C3.54393 3.40988 3.50037 3.32758 3.43866 3.26583L0.763909 0.595903C0.702152 0.534049 0.617371 0.500097 0.529468 0.5C0.441516 0.5 0.357905 0.534049 0.296198 0.595903Z" fill="#35414B"/>
</svg>

<svg width="4" height="7" fill="none" xmlns="http://www.w3.org/2000/svg"><path d="M.296.596.098.792a.326.326 0 0 0-.096.233c0 .087.034.17.096.232L2.34 3.499.096 5.743A.326.326 0 0 0 0 5.975c0 .088.034.17.096.232l.196.197a.329.329 0 0 0 .465 0l2.682-2.672a.335.335 0 0 0 .105-.233v-.001a.335.335 0 0 0-.105-.232L.764.596a.331.331 0 0 0-.468 0Z" fill="#35414B"/></svg>
